X:6
T:Greensleeves
M:6/8
L:1/8
Q:3/8=120
K:Em
E|G2 A B2 c|d3 e2 d|B2 G G2 F#|E3 E2 E|
G2 A B2 c|d3 e2 d|B2 G F#2 D#|E6||

